X:569
T:I Dreamt of My Love.
T:aislingui.g me air mo gra.d.
R:air
N:"With feeling" "Collected from J. O'Neill."
B:O'Neill 569
Z:Transcribed by J.B. Walsh, walsh@math.ubc.ca
M:C
L:1/8
<START_ANN> %Q:50 <END_ANN>
K:Em
GA|AB2 EF EFGA|BcAB G2 GA|AB2 EF E2 AG|FDEF D2 GF|
E3 D D2 B,D|GA 3BAG A2 AG|AB cA B3 A|G2 FE E2||
Bd|e3 d cBAG|A2 Bc B2 Bd|e3d cBAG|FG/A/ G/F/E/F/D2 GF|
E3 D D2 B,D|GA 3BAG A2 AG|ABcA B3A|G2 FE E2||
